assets/icons/qvision/upload_file.svg

<svg xmlns="http://www.w3.org/2000/svg" height="24" viewBox="0 0 24 24" width="24"><path d="M0 0h24v24H0V0z" fill="none"/><path d="M14 2H6c-1.1 0-1.99.9-1.99 2L4 20c0 1.1.89 2 1.99 2H18c1.1 0 2-.9 2-2V8l-6-6zm4 18H6V4h7v5h5v11zM8 15.01l1.41 1.41L11 14.84V19h2v-4.16l1.59 1.59L16 15.01 12.01 11z"/></svg>

<svg width="24" height="24" viewBox="0 0 24 24" fill="none" xmlns="http://www.w3.org/2000/svg">
<g clip-path="url(#clip0_147_2904)">
<path d="M14 2H6C4.9 2 4.01 2.9 4.01 4L4 20C4 21.1 4.89 22 5.99 22H18C19.1 22 20 21.1 20 20V8L14 2ZM18 20H6V4H13V9H18V20ZM8 15.01L9.41 16.42L11 14.84V19H13V14.84L14.59 16.43L16 15.01L12.01 11L8 15.01Z" fill="#323232"/>
</g>
<defs>
<clipPath id="clip0_147_2904">
<rect width="24" height="24" fill="white"/>
</clipPath>
</defs>
</svg>
